X:0814
M:C
L:1/8
Q:1/4=132 "Vivace"
P:ABA % Aird uses a da capo
K:G
P:A
d2 {f}e>d d2g>e|d2{f}e>d d2B2|c2A2 G2 F2|G3A  G2z2 |]
P:B
b2    g2  e2fg |a2   f2  d2ef|g2e2 d2^c2|d3e  d2z2  |
b2    g2  e2fg |a2   f2  d2ef|g2e2 d2^c2|d3e (dBcA)||

